storage/app/icons/phosphoricons/duotone/subtract-square-duotone.svg

<svg xmlns="http://www.w3.org/2000/svg" fill="currentColor" viewBox="0 0 256 256"><path d="M216 96v120H96v-56h64V96Z" opacity=".2"/><path d="M216 88h-48V40a8 8 0 0 0-8-8H40a8 8 0 0 0-8 8v120a8 8 0 0 0 8 8h48v48a8 8 0 0 0 8 8h120a8 8 0 0 0 8-8V96a8 8 0 0 0-8-8M48 48h104v104H48Zm160 160H104v-40h56a8 8 0 0 0 8-8v-56h40Z"/></svg>

<svg xmlns="http://www.w3.org/2000/svg" viewBox="0 0 256 256" fill="currentColor"><path d="M216,96V216H96V160h64V96Z" opacity="0.2"/><path d="M216,88H168V40a8,8,0,0,0-8-8H40a8,8,0,0,0-8,8V160a8,8,0,0,0,8,8H88v48a8,8,0,0,0,8,8H216a8,8,0,0,0,8-8V96A8,8,0,0,0,216,88ZM48,48H152V152H48ZM208,208H104V168h56a8,8,0,0,0,8-8V104h40Z"/></svg>
